!!!COM:	Ockeghem, Johannes
!!!CDT:	~1425-1497/02/06
!!!OPR:	Missa Prolationum
!!!ONM:	4
!!!OTL:	Sanctus
!!!AGN:	Mass; Sanctus
!!!SCT:	Ock1011d
!!!SCA:	Ock1011d
!!!voices:	4
!!!voices-OPR:	4
**kern	**text	**kern	**text	**kern	**text	**kern	**text
*staff4	*staff4	*staff3	*staff3	*staff2	*staff2	*staff1	*staff1
*Ivox	*	*Ivox	*	*Ivox	*	*Ivox	*
*Ivox	*	*Ivox	*	*Ivox	*	*Ivox	*
*I"Contra2	*	*I"Contra1	*	*I"Discantus2	*	*I"Discantus1	*
*I'C2	*	*I'C1	*	*I'D2	*	*I'D1	*
*>[A,B,C,D]	*>[A,B,C,D]	*>[A,B,C,D]	*>[A,B,C,D]	*>[A,B,C,D]	*>[A,B,C,D]	*>[A,B,C,D]	*>[A,B,C,D]
*>A	*>A	*>A	*>A	*>A	*>A	*>A	*>A
*clefF4	*	*clefGv2	*	*clefGv2	*	*clefG2	*
*k[]	*	*k[]	*	*k[b-]	*	*k[]	*
*M3/1	*	*M3/1	*	*M3/1	*	*M3/1	*
*met(O)	*	*met(O)	*	*met(O)	*	*met(O)	*
=1-	=1-	=1-	=1-	=1-	=1-	=1-	=1-
!LO:TX:X=-40:Z=8:t=Dux	!	!LO:TX:X=-40:Z=8:t=Comes	!	!LO:TX:X=-40:Z=8:t=Dux	!	!LO:TX:X=-40:Z=8:t=Comes	!
0.C	Sanc-	0.r	.	1.c	Sanc-	0.r	.
.	.	.	.	2A/	.	.	.
.	.	.	.	1G	.	.	.
=2	=2	=2	=2	=2	=2	=2	=2
1.D	.	0.r	.	2F/	.	0.r	.
.	.	.	.	2A/	.	.	.
.	.	.	.	2B-\	.	.	.
2C/	.	.	.	1c	.	.	.
1E	.	.	.	.	.	.	.
.	.	.	.	2B-\	.	.	.
=3	=3	=3	=3	=3	=3	=3	=3
1F	.	0.r	.	2A/	.	0.r	.
.	.	.	.	1d	.	.	.
2E\	.	.	.	.	.	.	.
2C/	.	.	.	1c	.	.	.
1D	.	.	.	.	.	.	.
.	.	.	.	2Bni\	.	.	.
=4	=4	=4	=4	=4	=4	=4	=4
1C	-tus	0.r	.	2c\	.	0.r	.
.	.	.	.	2d\	.	.	.
1r	.	.	.	1e	.	.	.
1F	Sanc-	.	.	2c\	.	.	.
.	.	.	.	[2d\	.	.	.
=5	=5	=5	=5	=5	=5	=5	=5
2F\	.	0.r	.	2d\]	.	0.r	.
2E\	.	.	.	2c\	.	.	.
2F\	.	.	.	2A/	.	.	.
1A	.	.	.	2c\	.	.	.
.	.	.	.	1B-	.	.	.
2G\	.	.	.	.	.	.	.
=6	=6	=6	=6	=6	=6	=6	=6
2.A\	.	0.r	.	1A	-tus	0.r	.
4F\	.	.	.	.	.	.	.
2E\	.	.	.	1c	Sanc-	.	.
1F	.	.	.	.	.	.	.
.	.	.	.	1d	.	.	.
2E\	.	.	.	.	.	.	.
=7	=7	=7	=7	=7	=7	=7	=7
1C	.	0.r	.	1e	.	0.r	.
0F	-tus	.	.	2c\	.	.	.
.	.	.	.	2.d\	.	.	.
.	.	.	.	4c\	.	.	.
.	.	.	.	4B-\	.	.	.
.	.	.	.	4A/	.	.	.
=8	=8	=8	=8	=8	=8	=8	=8
2r	.	0.r	.	1G	.	0.r	.
2E\	Sanc-	.	.	.	.	.	.
2C/	.	.	.	1A	.	.	.
1D	.	.	.	.	.	.	.
.	.	.	.	1B-	.	.	.
2E\	.	.	.	.	.	.	.
=9	=9	=9	=9	=9	=9	=9	=9
1AA	.	0.r	.	2A/	.	0.r	.
.	.	.	.	1c	.	.	.
2C/	.	.	.	.	.	.	.
2D\	.	.	.	4B-\	.	.	.
.	.	.	.	4A/	.	.	.
1E	.	.	.	2G/	.	.	.
.	.	.	.	[2c\	.	.	.
=10	=10	=10	=10	=10	=10	=10	=10
1F	.	0.r	.	2c\]	.	0.r	.
.	.	.	.	2d\	.	.	.
1E	.	.	.	2.e\	.	.	.
.	.	.	.	8d\L	.	.	.
.	.	.	.	8c\J	.	.	.
2G\	.	.	.	2Bni\	.	.	.
[2A\	.	.	.	[2c\	-tus	.	.
=11	=11	=11	=11	=11	=11	=11	=11
4A\]	.	0.r	.	2c\]	.	0.r	.
8G\L	.	.	.	.	.	.	.
8F\J	.	.	.	.	.	.	.
2E\	.	.	.	2.c\	Sanc-	.	.
2F\	.	.	.	.	.	.	.
.	.	.	.	8Bni/L	.	.	.
.	.	.	.	8A/J	.	.	.
2.E\	.	.	.	2G/	.	.	.
.	.	.	.	2Bni\	.	.	.
4C/	.	.	.	.	.	.	.
2D\	.	.	.	2A/	.	.	.
=12	=12	=12	=12	=12	=12	=12	=12
2C/	.	0.r	.	1c	.	0.r	.
1AA	.	.	.	.	.	.	.
.	.	.	.	2A/	.	.	.
2C/	.	.	.	1A	.	.	.
1BB	.	.	.	.	.	.	.
.	.	.	.	2G#i/	.	.	.
=13	=13	=13	=13	=13	=13	=13	=13
0.AA	-tus	0.A	...do-	1A	-tus	1.a	...do-
.	.	.	.	0c	do-	.	.
.	.	.	.	.	.	2f/	.
.	.	.	.	.	.	1e	.
=14	=14	=14	=14	=14	=14	=14	=14
1r	.	1.B	.	1.d	.	2d/	.
.	.	.	.	.	.	2f/	.
1r	.	.	.	.	.	2g/	.
.	.	2A/	.	2c\	.	1a	.
1AA	do-	1c	.	1e	.	.	.
.	.	.	.	.	.	2g/	.
=15	=15	=15	=15	=15	=15	=15	=15
1D	.	1d	.	1f	.	2f/	.
.	.	.	.	.	.	1b-i	.
2E\	.	2c\	.	2g\	.	.	.
2F\	.	2A/	.	2f\	.	1a	.
1G	.	1B-i	-mi-	2d\	.	.	.
.	.	.	.	2e\	.	2g/	.
=16	=16	=16	=16	=16	=16	=16	=16
2F\	.	1A	-nus	1f	.	2a/	.
2D\	.	.	.	.	.	2b-i\	-mi-
1C	.	1r	.	1e	.	1cc	-nus
2r	.	1d	de-	1f	-mi-	2a/	de-
[2BB-i/	.	.	.	.	.	[2b-i\	.
=17	=17	=17	=17	=17	=17	=17	=17
2BB-/]	.	2d\	.	1f	-nus	2b-\]	.
1F	.	2c\	.	.	.	2a/	.
.	.	2d\	.	2d\	.	2f/	.
2F\	-mi-	1f	.	2.c\	.	2a/	.
1C	-nus	.	.	.	.	1g	.
.	.	.	.	4B-\	.	.	.
.	.	2e\	.	2G/	.	.	.
=18	=18	=18	=18	=18	=18	=18	=18
0F	.	2.f\	.	1A	.	1f	.
.	.	4d\	.	.	.	.	.
.	.	2c\	.	1r	.	1a	.
.	.	1d	.	.	.	.	.
1r	.	.	.	1f	de-	1b-i	.
.	.	2c\	.	.	.	.	.
=19	=19	=19	=19	=19	=19	=19	=19
1.F	de-	1A	.	1f	-us	1cc	.
.	.	0d	-us	1d	.	2a/	.
2.G\	.	.	.	.	.	2.b-i\	.
.	.	.	.	[1g	.	.	.
4F\	.	.	.	.	.	4a/	.
4E\	.	.	.	.	.	4g/	.
4D\	.	.	.	.	.	4f/	.
=20	=20	=20	=20	=20	=20	=20	=20
1C	.	2r	.	2g\]	.	1e	.
.	.	2c\	Sa-	2e\	.	.	.
1D	.	2A/	.	1d	.	1f	.
.	.	1B	.	.	.	.	.
1E	.	.	.	2r	.	1g	.
.	.	2c\	.	2G/	Sa-	.	.
=21	=21	=21	=21	=21	=21	=21	=21
2r	.	1F	.	2.A/	.	2f/	.
1F	.	.	.	.	.	1a	.
.	.	.	.	4B-\	.	.	.
.	.	2A/	.	2c\	.	.	.
4E\	.	2B\	.	2d\	.	4g/	.
4D\	.	.	.	.	.	4f/	.
2C/	.	1c	.	2e\	.	2e/	.
[2F\	.	.	.	2f\	.	[2a/	.
=22	=22	=22	=22	=22	=22	=22	=22
2F\]	.	1d	.	2.d\	.	2a/]	.
2G\	.	.	.	.	.	2b\	.
.	.	.	.	8c\L	.	.	.
.	.	.	.	8B-\J	.	.	.
2.A\	.	1c	.	2A/	.	2.cc\	.
.	.	.	.	2c\	.	.	.
4F\	.	.	.	.	.	8b/L	.
.	.	.	.	.	.	8a/J	.
2G\	.	2e\	.	2B-\	.	2g/	.
2F\	-us	[2f\	.	2c\	.	[2a/	-us
=23	=23	=23	=23	=23	=23	=23	=23
2r	.	4f\]	.	2F/	.	2a/]	.
.	.	8e\L	.	.	.	.	.
.	.	8d\J	.	.	.	.	.
1F	Sa-	2c\	.	2r	.	2.a/	Sa-
.	.	2d\	.	2A/	.	.	.
.	.	.	.	.	.	8g/L	.
.	.	.	.	.	.	8f/J	.
2C/	.	2.c\	.	2G/	.	2e/	.
2E\	.	.	.	2c\	.	2g/	.
.	.	4A/	.	.	.	.	.
2D\	.	2B-i\	.	[2d\	.	2f/	.
=24	=24	=24	=24	=24	=24	=24	=24
2F\	.	2A/	.	4d\]	.	1a	.
.	.	.	.	4c\	.	.	.
2D\	.	1F	.	1d	.	.	.
1F	.	.	.	.	.	2f/	.
.	.	2A/	.	2c\	.	1f	-ba-
1C	-ba-	1G	-ba-	1c	-ba-	.	.
.	.	.	.	.	.	2e/	.
=25	=25	=25	=25	=25	=25	=25	=25
0.Fl	-oth.	0.Fl	-oth.	0.cl	-oth.	0.fl	-oth.
!!LO:LB:i:g=z
=26||	=26||	=26||	=26||	=26||	=26||	=26||	=26||
*>B	*>B	*>B	*>B	*>B	*>B	*>B	*>B
*clefF4	*	*clefGv2	*	*clefGv2	*	*clefG2	*
*k[]	*	*k[]	*	*k[b-]	*	*k[b-]	*
*M3/1	*	*M3/1	*	*M3/1	*	*M3/1	*
*met(O)	*	*met(O)	*	*met(O)	*	*met(O)	*
!!section: Pleni sunt celi
!!!OMD: Pleni sunt celi
!	!	!	!	!LO:TX:X=-40:Z=8:t=Comes	!	!LO:TX:X=-40:Z=8:t=Dux	!
0.r	.	0.r	.	0.r	.	1.cc	Ple-
.	.	.	.	.	.	2a/	.
.	.	.	.	.	.	2b-\	.
.	.	.	.	.	.	2g/	.
=27	=27	=27	=27	=27	=27	=27	=27
0.r	.	0.r	.	1.d	Ple-	1.f	.
.	.	.	.	2B-\	.	1g	.
.	.	.	.	2c\	.	.	.
.	.	.	.	2A/	.	2a/	.
=28	=28	=28	=28	=28	=28	=28	=28
0.r	.	0.r	.	1.G	.	1b-	.
.	.	.	.	.	.	2g/	.
.	.	.	.	1A	.	2f/	.
.	.	.	.	.	.	2a/	.
.	.	.	.	2B-\	.	[2g/	.
=29	=29	=29	=29	=29	=29	=29	=29
0.r	.	0.r	.	1c	.	2g/]	.
.	.	.	.	.	.	2e/	.
.	.	.	.	2A/	.	2f/	.
.	.	.	.	2G/	.	1g	.
.	.	.	.	2B-\	.	.	.
.	.	.	.	[2A/	.	2f/	.
=30	=30	=30	=30	=30	=30	=30	=30
0.r	.	0.r	.	2A/]	.	1a	.
.	.	.	.	2F/	.	.	.
.	.	.	.	2G/	.	2g/	.
.	.	.	.	1A	.	2e/	.
.	.	.	.	.	.	2f/	.
.	.	.	.	2G/	.	[2g/	.
=31	=31	=31	=31	=31	=31	=31	=31
0.r	.	0.r	.	1B-	.	4g/]	.
.	.	.	.	.	.	4f/	.
.	.	.	.	.	.	4e/	.
.	.	.	.	.	.	4d/	.
.	.	.	.	2A/	.	1c	-ni
.	.	.	.	2F/	.	.	.
.	.	.	.	2G/	.	1r	.
.	.	.	.	[2A/	.	.	.
=32	=32	=32	=32	=32	=32	=32	=32
0.r	.	0.r	.	4A/]	.	2e/	sunt
.	.	.	.	4G/	.	.	.
.	.	.	.	4F/	.	2d/	.
.	.	.	.	4E/	.	.	.
.	.	.	.	1D	-ni	1f	.
.	.	.	.	1r	.	2d/	.
.	.	.	.	.	.	[2e/	ce-
=33	=33	=33	=33	=33	=33	=33	=33
0.r	.	0.r	.	2F/	sunt	4e/]	.
.	.	.	.	.	.	4d/	.
.	.	.	.	2E/	.	2c/	.
.	.	.	.	1G	.	1Bni	-li
.	.	.	.	2E/	.	1r	.
.	.	.	.	[2F/	ce-	.	.
=34	=34	=34	=34	=34	=34	=34	=34
0.r	.	0.r	.	4F/]	.	2c/	et
.	.	.	.	4E/	.	.	.
.	.	.	.	2D/	.	2d/	.
.	.	.	.	1C	-li	1e	ter-
.	.	.	.	1r	.	2d/	.
.	.	.	.	.	.	2c/	.
=35	=35	=35	=35	=35	=35	=35	=35
0.r	.	0.r	.	2D/	et	2f/	.
.	.	.	.	2E/	.	2g/	.
.	.	.	.	1F	ter-	1a	.
.	.	.	.	2E/	.	2g/	.
.	.	.	.	2D/	.	2a/	.
=36	=36	=36	=36	=36	=36	=36	=36
0.r	.	0.r	.	2G/	.	2b-\	.
.	.	.	.	2A/	.	2.a/	.
.	.	.	.	1B-	.	.	.
.	.	.	.	.	.	4f/	.
.	.	.	.	.	.	2g/	.
.	.	.	.	2A/	.	1a	.
.	.	.	.	2B-\	.	.	.
=37	=37	=37	=37	=37	=37	=37	=37
0.r	.	0.r	.	2c\	.	1g	-ra
.	.	.	.	2.B-\	.	.	.
.	.	.	.	.	.	1r	.
.	.	.	.	4G/	.	.	.
.	.	.	.	2A/	.	.	.
.	.	.	.	1B-	.	1g	glo-
=38	=38	=38	=38	=38	=38	=38	=38
0.r	.	0.r	.	1A	-ra	1cc	.
.	.	.	.	1r	.	1b-	.
.	.	.	.	1A	glo-	2a/	.
.	.	.	.	.	.	[2a/	-ri-
=39	=39	=39	=39	=39	=39	=39	=39
0.r	.	0.r	.	1d	.	2a/]	.
.	.	.	.	.	.	2f/	.
.	.	.	.	1c	.	1e	-a
.	.	.	.	2B-\	.	2r	.
.	.	.	.	[2B-\	-ri-	2f/	tu-
=40	=40	=40	=40	=40	=40	=40	=40
0.r	.	0.r	.	2B-\]	.	2g/	.
.	.	.	.	2G/	.	2b-\	.
.	.	.	.	1F	-a	2a/	.
.	.	.	.	.	.	1cc	.
.	.	.	.	2r	.	.	.
.	.	.	.	2G/	tu-	2b-\	.
=41	=41	=41	=41	=41	=41	=41	=41
0.r	.	0.r	.	2A/	.	2.cc\	.
.	.	.	.	2c\	.	.	.
.	.	.	.	.	.	8b-/L	.
.	.	.	.	.	.	8a/J	.
.	.	.	.	2B-\	.	2g/	.
.	.	.	.	1d	.	4f/	.
.	.	.	.	.	.	2b-\	.
.	.	.	.	.	.	4a/	.
.	.	.	.	2c\	.	4a/	.
.	.	.	.	.	.	4g/	.
=42	=42	=42	=42	=42	=42	=42	=42
0.r	.	0.r	.	2.d\	.	2.b-\	.
.	.	.	.	8c\L	.	4g/	.
.	.	.	.	8B-\J	.	.	.
.	.	.	.	2A/	.	2f/	.
.	.	.	.	4G/	.	2e/	.
.	.	.	.	2c\	.	.	.
.	.	.	.	.	.	1d	.
.	.	.	.	4Bni\	.	.	.
.	.	.	.	4Bni\	.	.	.
.	.	.	.	4A/	.	.	.
=43	=43	=43	=43	=43	=43	=43	=43
0.r	.	0.r	.	0.cl	-a.	0.cl	-a.
!!LO:LB:i:g=z
=44||	=44||	=44||	=44||	=44||	=44||	=44||	=44||
*>C	*>C	*>C	*>C	*>C	*>C	*>C	*>C
*clefF4	*	*clefGv2	*	*clefGv2	*	*clefG2	*
*k[b-]	*	*k[b-]	*	*k[]	*	*k[]	*
*M3/1	*	*M3/1	*	*M3/1	*	*M3/1	*
*met(O)	*	*met(O)	*	*met(O)	*	*met(O)	*
!!section: Osanna
!!!OMD: Osanna
!LO:TX:X=-40:Z=8:t=Comes	!	!LO:TX:X=-40:Z=8:t=Dux	!	!LO:TX:X=-40:Z=8:t=Comes	!	!LO:TX:X=-40:Z=8:t=Dux	!
[0.F	O-	0.f	O-	0.c	O-	0cc	O-
.	.	.	.	.	.	[1cc	-san-
=45	=45	=45	=45	=45	=45	=45	=45
1.F]	.	0.f	-san-	0.c	-san-	1cc]	.
.	.	.	.	.	.	0a	.
[1.F	-san-	.	.	.	.	.	.
=46	=46	=46	=46	=46	=46	=46	=46
0.F]	.	0.c	-na	0.A	.	0cc	-na
.	.	.	.	.	.	1a	O-
=47	=47	=47	=47	=47	=47	=47	=47
[0.C	-na	1.r	.	0.c	-na	1g	.
.	.	.	.	.	.	0e	.
.	.	1.c	O-	.	.	.	.
=48	=48	=48	=48	=48	=48	=48	=48
1.C]	.	0c	-san-	1A	O-	1e	-san-
.	.	.	.	0G	.	2.g/	.
2r	.	.	.	.	.	.	.
.	.	.	.	.	.	4f/	.
1r	.	1B-	.	.	.	1d	.
=49	=49	=49	=49	=49	=49	=49	=49
0.C	O-	0c	-na	0.E	.	2.e/	.
.	.	.	.	.	.	4f/	.
.	.	.	.	.	.	2g/	.
.	.	.	.	.	.	2a/	.
.	.	1r	.	.	.	1g	-na
=50	=50	=50	=50	=50	=50	=50	=50
0C	-san-	0c	O-	1E	-san-	2r	.
.	.	.	.	.	.	1g	O-
.	.	.	.	2.G/	.	.	.
.	.	.	.	.	.	2e/	.
.	.	.	.	4F/	.	.	.
1BB-	.	2r	.	1D	.	2f/	.
.	.	2d\	.	.	.	2d/	.
=51	=51	=51	=51	=51	=51	=51	=51
0C	-na	2G/	.	2.E/	.	2.g/	.
.	.	2.c\	.	.	.	.	.
.	.	.	.	4F/	.	4a/	.
.	.	.	.	2G/	.	2g/	.
.	.	4B-\	.	.	.	.	.
.	.	2c\	.	2A/	.	1cc	.
1r	.	1d	.	1G	-na	.	.
.	.	.	.	.	.	2b\	.
=52	=52	=52	=52	=52	=52	=52	=52
0C	O-	1c	-san-	2r	.	2.cc\	-san-
.	.	.	.	1G	O-	.	.
.	.	.	.	.	.	8b/L	.
.	.	.	.	.	.	8a/J	.
.	.	1e	.	.	.	1g	.
.	.	.	.	2E/	.	.	.
2r	.	1d	.	2F/	.	1a	.
2D\	.	.	.	2D/	.	.	.
=53	=53	=53	=53	=53	=53	=53	=53
2GG/	.	2e\	.	2.G/	.	1.g	.
2.C/	.	2c\	.	.	.	.	.
.	.	.	.	4A/	.	.	.
.	.	1e	.	2G/	.	.	.
4BB-/	.	.	.	.	.	.	.
2C/	.	.	.	1c	.	4f/	.
.	.	.	.	.	.	4e/	.
1D	.	1d	.	.	.	1f	.
.	.	.	.	2B\	.	.	.
=54	=54	=54	=54	=54	=54	=54	=54
1C	-San-	2G/	.	2.c\	-san-	2g/	.
.	.	2c\	.	.	.	2.a/	.
.	.	.	.	8B/L	.	.	.
.	.	.	.	8A/J	.	.	.
1E	.	2B-\	.	1G	.	.	.
.	.	.	.	.	.	4g/	.
.	.	2c\	.	.	.	1g	.
1D	.	1d	.	1A	.	.	.
.	.	.	.	.	.	2f/	.
=55	=55	=55	=55	=55	=55	=55	=55
2E\	.	1c	-na	1.G	.	0g	-na
2C/	.	.	.	.	.	.	.
1E	.	2r	.	.	.	.	.
.	.	2G/	in	4F/	.	.	.
.	.	.	.	4E/	.	.	.
1D	.	1A	ex-	1F	.	2r	.
.	.	.	.	.	.	2f/	in
=56	=56	=56	=56	=56	=56	=56	=56
2GG/	.	2B-\	-cel-	2G/	.	2d/	.
2C/	.	2c\	.	2.A/	.	2e/	ex-
2BB-/	.	2d\	.	.	.	2f/	-cel-
.	.	.	.	4G/	.	.	.
2C/	.	2c\	.	1G	.	2e/	.
1D	.	2r	.	.	.	2d/	.
.	.	2B-\	.	2F/	.	2f/	.
=57	=57	=57	=57	=57	=57	=57	=57
1C	-na	2c\	.	0G	-na	4e/	.
.	.	.	.	.	.	2c/	.
.	.	2e\	.	.	.	.	.
.	.	.	.	.	.	2cc\	.
2r	.	1d	.	.	.	.	.
.	.	.	.	.	.	4b\	.
2GG/	in	.	.	.	.	4b\	.
.	.	.	.	.	.	4a/	.
1AA	ex-	1c	.	2r	.	1cc	-sis,
.	.	.	.	2F/	in	.	.
=58	=58	=58	=58	=58	=58	=58	=58
2BB-/	-cel-	2f\	.	2D/	.	2r	.
2C/	.	2e\	.	2E/	ex-	2cc\	in
2D\	.	2d\	.	2F/	-cel-	2f/	.
2C/	.	2e\	.	2E/	.	2g/	ex-
2r	.	2f\	.	2D/	.	2a/	-cel-
2BB-/	.	2d\	.	2F/	.	2b-i\	.
=59	=59	=59	=59	=59	=59	=59	=59
2C/	.	1c	.	4E/	.	2a/	.
.	.	.	.	2C/	.	.	.
2E\	.	.	.	.	.	2g/	.
.	.	.	.	2c\	.	.	.
1D	.	1F	.	.	.	2a/	.
.	.	.	.	4B\	.	.	.
.	.	.	.	4B\	.	2f/	.
.	.	.	.	4A/	.	.	.
1C	.	1G	.	[1cl	-sis.	4e/	.
.	.	.	.	.	.	2e/	.
.	.	.	.	.	.	4d/	.
=60	=60	=60	=60	=60	=60	=60	=60
0.Fl	-sis.	0.Fl	-sis.	0.c]	.	0.fl	-sis.
!!LO:LB:i:g=z
=61||	=61||	=61||	=61||	=61||	=61||	=61||	=61||
*>D	*>D	*>D	*>D	*>D	*>D	*>D	*>D
*clefF4	*	*clefGv2	*	*clefGv2	*	*clefG2	*
*k[]	*	*k[b-]	*	*k[]	*	*k[b-]	*
*M2/1	*	*M2/1	*	*M2/1	*	*M2/1	*
*met(C|)	*	*met(C|)	*	*met(C|)	*	*met(C|)	*
!!section: Benedictus
!!!OMD: Benedictus
0r	.	1B-	Be-	0r	.	1b-	Be-
.	.	2c\	.	.	.	2a/	.
.	.	[2d\	.	.	.	2f/	.
=62	=62	=62	=62	=62	=62	=62	=62
0r	.	2d\]	.	0r	.	1g	.
.	.	2e\	.	.	.	.	.
.	.	1f	.	.	.	2.f/	.
.	.	.	.	.	.	8e/L	.
.	.	.	.	.	.	8d/J	.
=63	=63	=63	=63	=63	=63	=63	=63
0r	.	2e\	.	0r	.	2c/	.
.	.	2f\	.	.	.	2B-/	.
.	.	1g	.	.	.	4r	.
.	.	.	.	.	.	2e-/	.
.	.	.	.	.	.	8d/L	.
.	.	.	.	.	.	8c/J	.
=64	=64	=64	=64	=64	=64	=64	=64
0r	.	2f\	.	0r	.	2d/	.
.	.	2d\	.	.	.	2B-/	.
.	.	4c\	.	.	.	1c	.
.	.	2e-i\	.	.	.	.	.
.	.	8d\L	.	.	.	.	.
.	.	8c\J	.	.	.	.	.
=65	=65	=65	=65	=65	=65	=65	=65
0r	.	2B-\	.	0r	.	2d/	.
.	.	2A/	.	.	.	2c/	.
.	.	2B-\	.	.	.	2B-/	.
.	.	2d\	.	.	.	2f/	.
=66	=66	=66	=66	=66	=66	=66	=66
0r	.	2.c\	.	0r	.	2.g/	.
.	.	4B-\	.	.	.	4f/	.
.	.	4A/	.	.	.	[1a	.
.	.	4G/	.	.	.	.	.
.	.	2F/	.	.	.	.	.
=67	=67	=67	=67	=67	=67	=67	=67
0r	.	2r	.	0r	.	1a]	.
.	.	2c\	.	.	.	.	.
.	.	2d\	.	.	.	1a	-ne-
.	.	[2f\	.	.	.	.	.
=68	=68	=68	=68	=68	=68	=68	=68
0r	.	2f\]	.	0r	.	1g	-dic-
.	.	2e\	.	.	.	.	.
.	.	1d	.	.	.	2f/	.
.	.	.	.	.	.	2b-\	.
=69	=69	=69	=69	=69	=69	=69	=69
0r	.	1c	.	0r	.	2a/	.
.	.	.	.	.	.	1g	.
.	.	1c	-ne-	.	.	.	.
.	.	.	.	.	.	2e/	.
=70	=70	=70	=70	=70	=70	=70	=70
0r	.	1B-	-dic-	0r	.	2f/	.
.	.	.	.	.	.	2d/	.
.	.	1A	.	.	.	1c	-tus
=71	=71	=71	=71	=71	=71	=71	=71
0r	.	0F	-tus	0r	.	2r	.
.	.	.	.	.	.	1f	be-
.	.	.	.	.	.	2d/	.
=72	=72	=72	=72	=72	=72	=72	=72
0r	.	2r	.	0r	.	2.e/	.
.	.	1c	be-	.	.	.	.
.	.	.	.	.	.	4f/	.
.	.	.	.	.	.	2g/	.
.	.	2A/	.	.	.	4f/	.
.	.	.	.	.	.	4e/	.
=73	=73	=73	=73	=73	=73	=73	=73
0r	.	2.B-\	.	0r	.	1d	.
.	.	4c\	.	.	.	.	.
.	.	2d\	.	.	.	2r	.
.	.	2B-\	.	.	.	[2g/	.
=74	=74	=74	=74	=74	=74	=74	=74
0r	.	1A	.	0r	.	2g/]	.
.	.	.	.	.	.	2f/	.
.	.	2G/	.	.	.	1g	.
.	.	[2c\	.	.	.	.	.
=75	=75	=75	=75	=75	=75	=75	=75
0r	.	2c\]	.	0r	.	2e/	.
.	.	2A/	.	.	.	2f/	.
.	.	2B-\	.	.	.	2g/	.
.	.	2c\	.	.	.	[2a/	.
=76	=76	=76	=76	=76	=76	=76	=76
0r	.	2.d\	.	0r	.	4a/]	.
.	.	.	.	.	.	4f/	.
.	.	.	.	.	.	2f/	-ne-
.	.	4B-\	.	.	.	.	.
.	.	2B-\	-ne-	.	.	2b-\	-dic-
.	.	[2c\	-dic-	.	.	2a/	.
=77	=77	=77	=77	=77	=77	=77	=77
0r	.	2c\]	.	0r	.	1g	.
.	.	1e	.	.	.	.	.
.	.	.	.	.	.	2cc\	.
.	.	2d\	.	.	.	2b-\	.
=78	=78	=78	=78	=78	=78	=78	=78
0r	.	2c\	.	0r	.	2a/	.
.	.	4B-\	.	.	.	1g	.
.	.	4A/	.	.	.	.	.
.	.	2G/	.	.	.	.	.
.	.	2c\	.	.	.	2e/	.
=79	=79	=79	=79	=79	=79	=79	=79
0r	.	2B-\	.	0r	.	2d/	.
.	.	2.c\	.	.	.	2c/	.
.	.	.	.	.	.	1d	.
.	.	4A/	.	.	.	.	.
.	.	2Bni\	.	.	.	.	.
=80	=80	=80	=80	=80	=80	=80	=80
0r	.	0c	-tus...	0r	.	0c	-tus...
=81	=81	=81	=81	=81	=81	=81	=81
1F	...qui	0r	.	1f	...qui	0r	.
2G\	.	.	.	2e\	.	.	.
[2A\	.	.	.	2c\	.	.	.
=82	=82	=82	=82	=82	=82	=82	=82
2A\]	.	0r	.	1d	.	0r	.
2B\	.	.	.	.	.	.	.
1c	.	.	.	2.c\	.	.	.
.	.	.	.	8B/L	.	.	.
.	.	.	.	8A/J	.	.	.
=83	=83	=83	=83	=83	=83	=83	=83
2B\	.	0r	.	2G/	.	0r	.
2c\	.	.	.	2F/	.	.	.
1d	.	.	.	4r	.	.	.
.	.	.	.	2B-\	qui	.	.
.	.	.	.	8A/L	.	.	.
.	.	.	.	8G/J	.	.	.
=84	=84	=84	=84	=84	=84	=84	=84
2c\	ve-	0r	.	2A/	.	0r	.
2A\	.	.	.	2F/	.	.	.
4G\	.	.	.	1G	.	.	.
2B-i\	.	.	.	.	.	.	.
8A\L	.	.	.	.	.	.	.
8G\J	.	.	.	.	.	.	.
=85	=85	=85	=85	=85	=85	=85	=85
2F\	.	0r	.	2A/	.	0r	.
2E\	.	.	.	2G/	.	.	.
2F\	.	.	.	2F/	.	.	.
2A\	.	.	.	2c\	.	.	.
=86	=86	=86	=86	=86	=86	=86	=86
2.G\	.	0r	.	2.d\	.	0r	.
4F\	.	.	.	4c\	.	.	.
4E\	.	.	.	[1e	.	.	.
4D\	.	.	.	.	.	.	.
2C/	.	.	.	.	.	.	.
=87	=87	=87	=87	=87	=87	=87	=87
2r	.	0r	.	1e]	.	0r	.
2G\	.	.	.	.	.	.	.
2A\	.	.	.	1e	ve-	.	.
[2c\	.	.	.	.	.	.	.
=88	=88	=88	=88	=88	=88	=88	=88
2c\]	.	0r	.	1d	.	0r	.
2B\	.	.	.	.	.	.	.
1A	.	.	.	2c\	.	.	.
.	.	.	.	2f\	.	.	.
=89	=89	=89	=89	=89	=89	=89	=89
1G	.	0r	.	2e\	.	0r	.
.	.	.	.	1d	.	.	.
1G	-nit	.	.	.	.	.	.
.	.	.	.	2B\	.	.	.
=90	=90	=90	=90	=90	=90	=90	=90
1F	.	0r	.	2c\	.	0r	.
.	.	.	.	2A/	.	.	.
1E	.	.	.	1G	-nit	.	.
=91	=91	=91	=91	=91	=91	=91	=91
0C	.	0r	.	2r	.	0r	.
.	.	.	.	1c	qui	.	.
.	.	.	.	2A/	.	.	.
=92	=92	=92	=92	=92	=92	=92	=92
2r	.	0r	.	2.B\	ve-	0r	.
1G	qui	.	.	.	.	.	.
.	.	.	.	4c\	.	.	.
.	.	.	.	2d\	.	.	.
2E\	.	.	.	4c\	.	.	.
.	.	.	.	4B\	.	.	.
=93	=93	=93	=93	=93	=93	=93	=93
2.F\	ve-	0r	.	1A	.	0r	.
4G\	.	.	.	.	.	.	.
2A\	.	.	.	2r	.	.	.
2F\	.	.	.	[2d\	.	.	.
=94	=94	=94	=94	=94	=94	=94	=94
1E	.	0r	.	2d\]	.	0r	.
.	.	.	.	2c\	.	.	.
2D\	.	.	.	1d	.	.	.
[2G\	.	.	.	.	.	.	.
=95	=95	=95	=95	=95	=95	=95	=95
2G\]	.	0r	.	2B\	.	0r	.
2E\	.	.	.	2c\	.	.	.
2F\	.	.	.	2d\	.	.	.
2G\	.	.	.	[2e\	.	.	.
=96	=96	=96	=96	=96	=96	=96	=96
2.A\	.	0r	.	4e\]	.	0r	.
.	.	.	.	4c\	.	.	.
.	.	.	.	2c\	.	.	.
4F\	.	.	.	.	.	.	.
2F\	.	.	.	2f\	.	.	.
[2G\	.	.	.	2e\	.	.	.
=97	=97	=97	=97	=97	=97	=97	=97
2G\]	.	0r	.	1d	.	0r	.
1B	.	.	.	.	.	.	.
.	.	.	.	2g\	.	.	.
2A\	.	.	.	2f\	.	.	.
=98	=98	=98	=98	=98	=98	=98	=98
2G\	.	0r	.	2e\	.	0r	.
4F\	.	.	.	1d	.	.	.
4E\	.	.	.	.	.	.	.
2D\	.	.	.	.	.	.	.
2G\	.	.	.	2B\	.	.	.
=99	=99	=99	=99	=99	=99	=99	=99
2F\	.	0r	.	2A/	.	0r	.
2.G\	.	.	.	2G/	.	.	.
.	.	.	.	1A	.	.	.
4E\	.	.	.	.	.	.	.
2F#i\	.	.	.	.	.	.	.
=100	=100	=100	=100	=100	=100	=100	=100
0Gl	-nit...	0r	.	0Gl	-nit...	0r	.
=101	=101	=101	=101	=101	=101	=101	=101
0r	.	1c	...in	0r	.	1g	...in
.	.	1F	.	.	.	1a	.
=102	=102	=102	=102	=102	=102	=102	=102
0r	.	2r	.	0r	.	1g	no-
.	.	1c	no-	.	.	.	.
.	.	.	.	.	.	2a/	.
.	.	2A/	.	.	.	[2cc\	.
=103	=103	=103	=103	=103	=103	=103	=103
0r	.	1G	.	0r	.	2cc\]	.
.	.	.	.	.	.	2bni\	.
.	.	1C	.	.	.	1cc	.
=104	=104	=104	=104	=104	=104	=104	=104
0r	.	2c\	.	0r	.	1a	.
.	.	2d\	.	.	.	.	.
.	.	2c\	.	.	.	1a	-mi-
.	.	[2f\	.	.	.	.	.
=105	=105	=105	=105	=105	=105	=105	=105
0r	.	2f\]	.	0r	.	1a	-ne
.	.	2F/	.	.	.	.	.
.	.	2r	.	.	.	2.g/	.
.	.	2E/	-mi-	.	.	.	.
.	.	.	.	.	.	8f/L	.
.	.	.	.	.	.	8e/J	.
=106	=106	=106	=106	=106	=106	=106	=106
0r	.	2F/	-ne	0r	.	1d	.
.	.	2G/	.	.	.	.	.
.	.	2.A/	.	.	.	2c/	Do-
.	.	.	.	.	.	[2f/	.
.	.	[4D/	.	.	.	.	.
=107	=107	=107	=107	=107	=107	=107	=107
0r	.	4D/]	.	0r	.	1f]	.
.	.	8C/L	.	.	.	.	.
.	.	8BB/J	.	.	.	.	.
.	.	1AA	.	.	.	.	.
.	.	.	.	.	.	2e/	.
.	.	2A/	Do-	.	.	[2f/	.
=108	=108	=108	=108	=108	=108	=108	=108
0r	.	2B-\	.	0r	.	2f/]	.
.	.	1c	.	.	.	2e/	.
.	.	.	.	.	.	1d	.
.	.	2Bni\	.	.	.	.	.
=109	=109	=109	=109	=109	=109	=109	=109
0r	.	2c\	.	0r	.	2c/	.
.	.	4A/	.	.	.	2f/	.
.	.	2B-\	.	.	.	.	.
.	.	.	.	.	.	2g/	.
.	.	4A/	.	.	.	.	.
.	.	[2F/	.	.	.	2a/	.
=110	=110	=110	=110	=110	=110	=110	=110
0r	.	4F/]	.	0r	.	1b-	.
.	.	2.G/	.	.	.	.	.
.	.	2.F/	.	.	.	1a	.
.	.	[4B-\	.	.	.	.	.
=111	=111	=111	=111	=111	=111	=111	=111
0r	.	2B-\]	.	0r	.	2g/	.
.	.	2.A/	.	.	.	1a	.
.	.	2.d\	.	.	.	.	.
.	.	.	.	.	.	2b-\	.
=112	=112	=112	=112	=112	=112	=112	=112
*	*	*	*	*	*	*M2/1	*
*	*	*	*	*	*	*met(Cr)	*
0r	.	2.c\	.	0r	.	2.cc\	.
.	.	2.f\	.	.	.	2.a/	.
.	.	2e\	.	.	.	[2g/	.
=113	=113	=113	=113	=113	=113	=113	=113
0r	.	1d	.	0r	.	4g/]	.
.	.	.	.	.	.	2.f/	.
.	.	2c\	.	.	.	2.e/	.
.	.	[2B-\	.	.	.	.	.
.	.	.	.	.	.	[4d/	.
=114	=114	=114	=114	=114	=114	=114	=114
0r	.	2B-\]	.	0r	.	2d/]	.
.	.	2A/	.	.	.	2c/	.
.	.	1G	.	.	.	4B-/	.
.	.	.	.	.	.	2d/	.
.	.	.	.	.	.	8c/L	.
.	.	.	.	.	.	8B-/J	.
=115	=115	=115	=115	=115	=115	=115	=115
0r	.	2F/	.	0r	.	2A/	.
.	.	4D/	.	.	.	2B-/	.
.	.	2E/	.	.	.	.	.
.	.	.	.	.	.	2G/	.
.	.	8D/L	.	.	.	.	.
.	.	8E/J	.	.	.	.	.
.	.	4F/	.	.	.	4r	.
.	.	4E/	.	.	.	[4c/	.
=116	=116	=116	=116	=116	=116	=116	=116
0r	.	2C/	.	0r	.	4c/]	.
.	.	.	.	.	.	4e/	.
.	.	4F/	.	.	.	2d/	.
.	.	4G/	.	.	.	.	.
.	.	2A/	.	.	.	4c/	.
.	.	.	.	.	.	4f/	.
.	.	4B-\	.	.	.	4g/	.
.	.	4c\	.	.	.	[4a/	.
=117	=117	=117	=117	=117	=117	=117	=117
0r	.	2d\	.	0r	.	4a/]	.
.	.	.	.	.	.	4f/	.
.	.	4B-\	.	.	.	2g/	.
.	.	2c\	.	.	.	.	.
.	.	.	.	.	.	2c/	.
.	.	2F/	.	.	.	.	.
.	.	.	.	.	.	2d/	.
.	.	[4G/	.	.	.	.	.
=118	=118	=118	=118	=118	=118	=118	=118
0r	.	4G/]	.	0r	.	4B-/	.
.	.	4F/	.	.	.	2A/	.
.	.	2D/	.	.	.	.	.
.	.	.	.	.	.	4B-/	.
.	.	4C/	.	.	.	4c/	.
.	.	4F/	.	.	.	4d/	.
.	.	4G/	.	.	.	4.e/	.
.	.	[4A/	.	.	.	.	.
.	.	.	.	.	.	16f/LL	.
.	.	.	.	.	.	16g/JJ	.
=119	=119	=119	=119	=119	=119	=119	=119
0r	.	8A\L]	.	0r	.	4.a/	.
.	.	16B-\L	.	.	.	.	.
.	.	16c\JJ	.	.	.	.	.
.	.	4.d\	.	.	.	.	.
.	.	.	.	.	.	8f/	.
.	.	.	.	.	.	4g/	.
.	.	8B-\	.	.	.	.	.
.	.	4c\	.	.	.	2c/	.
.	.	2F/	.	.	.	.	.
.	.	.	.	.	.	2f/	.
.	.	2G/	-mi-	.	.	.	.
.	.	.	.	.	.	4e/	-mi-
=120	=120	=120	=120	=120	=120	=120	=120
0r	.	0Fl	-ni.	0r	.	0fl	-ni.
==	==	==	==	==	==	==	==
*-	*-	*-	*-	*-	*-	*-	*-
!!!RDF**kern: l=long note in original notation
!!!RDF**kern: i=editorial accidental
!!!ENC:	Chris Gage 08-20-2012, Will Watson
!!!END:	2014/05/13/
!!!EED:	Will Watson
!!!EEV:	2014/05/14/
!!!ONB:	Translated from MusicXML and edited on 2014/05/14/ by Craig Sapp
!!muse2ps: T^@{OPR}^u^@{ONM}{. }@{OTL}^C^@{COM}^i2I150v85,85,85,130Q16
